src/topics/icons/jasmine.svg

<svg height="255" preserveAspectRatio="xMidYMid" viewBox="0 0 256 255" width="256" xmlns="http://www.w3.org/2000/svg"><g fill="#8a4182" transform="matrix(1 0 0 -1 0 255)"><path d="m118.267273 149.665989h19.794545l4.918182 6.732655v52.727684h-29.627273v-52.733108z"/><path d="m105.508545 126.148701 6.115091 18.717288-4.918363 6.730847-50.4340003 16.292882-9.154-28.015368 50.4394546-16.296497z"/><path d="m124.06 106.813107-16.012364 11.570622-7.958909-2.572656-31.1683634-42.6594346 23.9674546-17.3139887 31.1721818 42.6608814z"/><path d="m148.285455 118.385537-16.016364-11.568814.003636-8.3199998 31.169091-42.6590735 23.969091 17.3139887-31.174545 42.6630506z"/><path d="m144.701818 144.869605 6.118182-18.719097 7.958182-2.569039 50.434545 16.292881-9.156363 28.017175-50.436364-16.296497z"/><path d="m128.170909 254.893559c-70.4614545 0-127.78745445-56.992542-127.78745445-127.045423 0-70.0783733 57.32599995-127.08682527 127.78745445-127.08682527 70.454546 0 127.774546 57.00845197 127.774546 127.08682527 0 70.052881-57.32 127.045423-127.774546 127.045423zm0-25.724745c56.269091 0 101.9-45.356837 101.9-101.320678 0-55.9819213-45.630909-101.3586445-101.9-101.3586445-56.2881817 0-101.9130908 45.3767232-101.9130908 101.3586445 0 55.963841 45.6249091 101.320678 101.9130908 101.320678z"/><path d="m205.565455 99.6085876-38.338182 12.3877964 2.534545 7.764972 38.338182-12.387797z"/><path d="m156.669091 160.809944-6.643636 4.798192 23.692727 32.428474 6.643636-4.798192z"/><path d="m100.071818 161.104633-23.6896362 32.430282 6.6441818 4.798192 23.6896364-32.428474z"/><path d="m50.608 100.093107-2.5361818 7.764972 38.3343636 12.382373 2.5363637-7.764972z"/><path d="m123.807273 46.8411299h8.210945v40.084791h-8.210945z"/></g></svg>

<?xml version="1.0" encoding="UTF-8" standalone="no" ?>
<svg width="256px" height="255px" viewBox="0 0 256 255" version="1.1" xmlns="http://www.w3.org/2000/svg" xmlns:xlink="http://www.w3.org/1999/xlink" preserveAspectRatio="xMidYMid">
    <g transform="translate(128.000000, 127.000000) scale(1, -1) translate(-128.000000, -127.000000) translate(0.000000, -1.000000)" fill="#8A4182">
        <path d="M118.267273,149.665989 L138.061818,149.665989 L142.98,156.398644 L142.98,209.126328 L113.352727,209.126328 L113.352727,156.39322 L118.267273,149.665989"></path>
        <path d="M105.508545,126.148701 L111.623636,144.865989 L106.705273,151.596836 L56.2712727,167.889718 L47.1172727,139.87435 L97.5567273,123.577853 L105.508545,126.148701"></path>
        <path d="M124.06,106.813107 L108.047636,118.383729 L100.088727,115.811073 L68.9203636,73.1516384 L92.8878182,55.8376497 L124.06,98.4985311 L124.06,106.813107"></path>
        <path d="M148.285455,118.385537 L132.269091,106.816723 L132.272727,98.4967232 L163.441818,55.8376497 L187.410909,73.1516384 L156.236364,115.814689 L148.285455,118.385537"></path>
        <path d="M144.701818,144.869605 L150.82,126.150508 L158.778182,123.581469 L209.212727,139.87435 L200.056364,167.891525 L149.62,151.595028 L144.701818,144.869605"></path>
        <path d="M128.170909,254.893559 C57.7094545,254.893559 0.383454545,197.901017 0.383454545,127.848136 C0.383454545,57.7697627 57.7094545,0.761310734 128.170909,0.761310734 C198.625455,0.761310734 255.945455,57.7697627 255.945455,127.848136 C255.945455,197.901017 198.625455,254.893559 128.170909,254.893559 L128.170909,254.893559 L128.170909,254.893559 Z M128.170909,229.168814 C184.44,229.168814 230.070909,183.811977 230.070909,127.848136 C230.070909,71.8662147 184.44,26.4894915 128.170909,26.4894915 C71.8827273,26.4894915 26.2578182,71.8662147 26.2578182,127.848136 C26.2578182,183.811977 71.8827273,229.168814 128.170909,229.168814 L128.170909,229.168814 Z"></path>
        <path d="M205.565455,99.6085876 L167.227273,111.996384 L169.761818,119.761356 L208.1,107.373559 L205.565455,99.6085876"></path>
        <path d="M156.669091,160.809944 L150.025455,165.608136 L173.718182,198.03661 L180.361818,193.238418 L156.669091,160.809944"></path>
        <path d="M100.071818,161.104633 L76.3821818,193.534915 L83.0263636,198.333107 L106.716,165.904633 L100.071818,161.104633"></path>
        <path d="M50.608,100.093107 L48.0718182,107.858079 L86.4061818,120.240452 L88.9425455,112.47548 L50.608,100.093107"></path>
        <path d="M123.807273,46.8411299 L132.018218,46.8411299 L132.018218,86.9259209 L123.807273,86.9259209 L123.807273,46.8411299 L123.807273,46.8411299 Z"></path>
    </g>
</svg>
